X:1
T:Go Ye to the Land of the Cedar and Vine
T:Go Ye to the Land of the Cedar and Vine
T:W. D.
T:William Orland Bourne, 1857
T:Public Domain Courtesy of the Cyber Hymnal™
T:Public Domain Courtesy of the Cyber Hymnal™
C:W. D.
Z:Public Domain
Z:Courtesy of the Cyber Hymnal™
%%score ( 1 2 ) ( 3 4 )
L:1/8
Q:1/4=90
M:4/4
K:G
V:1 treble 
V:2 treble 
V:3 bass 
V:4 bass 
V:1
 ([EG][EG]) | [DG]2 [GB]>[Ac] [Bd]2 [GB][DG] | [FA]2 [Fd][FAc] [GB]2 ([DG][DG]) | %3
w: 1.~Go *|ye to the land of the|ce- dar and vine, Where~the *|
w: 2.~Go *|ye to the land of the|jew- el and gem, Go *|
w: 3.~Go *|ye to the land of the|ol- ive, and teach Of~a *|
w: 4.~Go *|ye to the land where the|E- thi- op roams, And *|
 [DG]2 [B,D][B,D] (EF)[DG][EA] | [DB]2 [FB]>[FA] G2 ([EG][EG]) | [DG]2 [GB]>[Ac] [Bd]2 [GB][DG] | %6
w: an- gels came down * from their|hea- ven- ly train, Where~the *|gar- den was fill- èd with|
w: ye to the stores * of the|rich- est of pearl; The *|light of sal- va- tion is|
w: peace which the world * is not|a- ble to give; To~the *|flow- er- y land, where the|
w: stretch- es his long * fet- tered|hand un- to God; Oh! *|tell them of Hea- ven, and|
 [FA]2 [Fd][FAc] [GB]2 ([DG][DG]) | [DG]2 [B,D][B,D] (EF)[DG][EA] | [DB]2 [FB]>[FA] G2 ([FA][FA]) | %9
w: pre- sence di- vine, And~the *|Sav- ior has trod- * den the|val- ley and plain. For~a *|
w: giv- en to them, There *|ear- ly the ban- * ner of|glo- ry un- furl; Oh, *|
w: mes- sage shall reach The *|mil- lions that wait * in the|Sav- ior to live; Go *|
w: point to the homes Where *|ne- ver the foot * of op-|pres- sions hath trod; And~the *|
 [FA]2 [Fd]>[Ge] [Af]2 [Fd][Fd] | [Ge]2 [Ge]>[Fd] [E^c]2 [EA][EA] | [Fd]2 [FA][FA] [GB]2 [Fd][Ge] | %12
w: star hath a- ris- en, to|shine through the gloom, And a|life break- eth forth from the|
w: go to the isles of the|o- cean’s wide breast, A- nd|tell them of Je- sus, and|
w: ye to the la- nd of|ru- by and gold, A- nd|bid them the crown of re-|
w: de- sert shall bloom, and the|bar- ren shall sing, And the|wild- er- ness forth in- to|
 [Af]2 [Af]>[Ae] !fermata![Fd]2 ||"^Refrain" [Bd][Bd] | [Bd]2 [ce][Bd] [Bd]2 [GB][Bd] | %15
w: verge of the tomb.|||
w: Hea- ven and rest.|For a|star hath a- ris- en, to|
w: demp- tion be- hold.|||
w: beau- ty shall spring.|||
 ([ce][Bd])[Ac][GB] [FA]2 [Fc][Fc] | [GB]2 [GA][GB] [Gc]2 [EB][EA] | [DG]2 [DF]>[DA] [DG]2 |] %18
w: |||
w: shine * through the gloom, And a|life break- eth forth from the|verge of the tomb.|
w: |||
w: |||
V:2
 x2 | x8 | x8 | x4 C2 x2 | x4 G2 x2 | x8 | x8 | x4 C2 x2 | x4 G2 x2 | x8 | x8 | x8 | x6 || x2 | %14
 x8 | x8 | x8 | x6 |] %18
V:3
 ([G,B,][G,B,]) | [G,B,]2 [G,D]>[G,D] [G,D]2 [G,D][G,B,] | %2
 [D,D]2 [D,D][D,D] [G,D]2 ([G,B,][G,B,]) | [G,B,]2 G,G, [C,G,]2 [G,,A,][C,C] | %4
 [D,B,]2 [D,D]>[D,C] [G,B,]2 ([G,B,][G,B,]) | [G,B,]2 [G,D]>[G,D] [G,D]2 [G,D][G,B,] | %6
 [D,D]2 [D,D][D,D] [G,D]2 ([G,B,][G,B,]) | [G,B,]2 G,G, [C,G,]2 [G,,A,][C,C] | %8
 [D,B,]2 [D,D]>[D,C] [G,B,]2 ([D,D][D,D]) | [D,D]2 [D,D]>[D,D] [D,D]2 [D,D][D,D] | %10
 [A,,A,^C]2 [A,C]>[A,D] [A,E]2 [A,C][G,C] | [F,D]2 [D,D][D,D] [G,D]2 [B,D][B,D] | %12
 [A,D]2 [A,^C]>[A,C] !fermata![D,D]2 || [G,D][G,D] | [G,D]2 [G,E][G,D] [G,D]2 [G,B,][G,D] | %15
 (ED)[G,C][G,B,] [D,A,]2 [D,D][D,D] | [G,D]2 [G,C][G,C] [C,E]2 [C,D][C,C] | %17
 [D,B,]2 [D,A,]>[D,C] [G,B,]2 |] %18
V:4
 x2 | x8 | x8 | x2 G,G, x4 | x8 | x8 | x8 | x2 G,G, x4 | x8 | x8 | x8 | x8 | x6 || x2 | x8 | %15
 G,2 x6 | x8 | x6 |] %18

